assets/icons/cross.svg

<svg width="25" height="25" viewBox="0 0 25 25" fill="none" xmlns="http://www.w3.org/2000/svg">
<g id="cross">
<path id="iconDefault" fill-rule="evenodd" clip-rule="evenodd" d="M4.55806 4.55806C4.80214 4.31398 5.19786 4.31398 5.44194 4.55806L12.5 11.6161L19.5581 4.55806C19.8021 4.31398 20.1979 4.31398 20.4419 4.55806C20.686 4.80214 20.686 5.19786 20.4419 5.44194L13.3839 12.5L20.4419 19.5581C20.686 19.8021 20.686 20.1979 20.4419 20.4419C20.1979 20.686 19.8021 20.686 19.5581 20.4419L12.5 13.3839L5.44194 20.4419C5.19786 20.686 4.80214 20.686 4.55806 20.4419C4.31398 20.1979 4.31398 19.8021 4.55806 19.5581L11.6161 12.5L4.55806 5.44194C4.31398 5.19786 4.31398 4.80214 4.55806 4.55806Z" fill="#18303F"/>
</g>
</svg>

<svg width="25" height="25" viewBox="0 0 25 25" fill="none"><g id="cross"><path id="iconDefault" fill-rule="evenodd" clip-rule="evenodd" d="M4.558 4.558a.625.625 0 0 1 .884 0l7.058 7.058 7.058-7.058a.625.625 0 1 1 .884.884L13.384 12.5l7.058 7.058a.625.625 0 1 1-.884.884L12.5 13.384l-7.058 7.058a.625.625 0 1 1-.884-.884l7.058-7.058-7.058-7.058a.625.625 0 0 1 0-.884Z" fill="#18303F"/></g></svg>
